X:1
T:Jesulein Süss
T:Jesulein Süss
T:Geistliche Kirchengesang (Köln, German
T:Harmony by Johann Sebastian Bach (1685-1750) Public Domain, Courtesy of the Cyber Hymnal™
C:Geistliche Kirchengesang (Köln, German
Z:Harmony by Johann Sebastian Bach (1685-1750)
Z:Public Domain, Courtesy of the Cyber Hymnal™
%%score ( 1 2 ) ( 3 4 )
L:1/8
Q:1/4=115
M:3/4
K:Bb
V:1 treble 
V:2 treble 
V:3 bass 
V:4 bass 
V:1
 [DB]2 [DB]=E _GA | [GB]2 [Gc]F =E2 | [FA]2 [FB]2 AD | [=EG]2 [CF]4 | [Fd]2 [Fc]3 E | %5
 [Dc]A [AB]3 G | [Fc]2 F2 G2 | [EA]2 [DB]4 | [Fd]2 [Ee]F G2 | [Ge]2 [Fc]4 | [Fc]G [_Ad]2 BA | %11
 [Gd]F [GB]4 | [GB]2 [Gc]2 =EF | [Gc]2 [GA]2 F=E | [FA]2 [B,B]C DE | [FB]2 [FG]2 E2 | %16
 [Ec]2 [DF]C [B,G]2 | [CA]2 [FB]4 | [Fd]2 [Gc]F EB | AE [DB]4- | [DB]4 z2 |] %21
V:2
 x6 | x4 =E2 | x6 | x6 | x5 E | x6 | x6 | x6 | x6 | x6 | x6 | x6 | x6 | x6 | x6 | x6 | x6 | x6 | %18
 x6 | x6 | x6 |] %21
V:3
 B,A, [G,B,]2 [D,D]2 | [G,D]F, [=E,C]D, C,2 | [F,C]2 [D,D]2 B,,D | [C,G,]C [F,A,]4 | %4
 [B,,B,]2 [F,B,]=E, [F,A,]2 | [_G,D]2 [G,D]^F, [G,E]2 | A,E [B,D]2 E,2 | [F,C]2 [B,,B,]4 | %8
 B,A, [G,B,]2 E,C | [C,B,]2 [F,B,]2 A,B, | [A,C]G, [F,B,]2 D,2 | [B,,_A,]2 [E,G,]4 | %12
 [G,D]F, [=E,C]2 C,2 | [=E,C]2 [F,C]4 | [F,C]E, [D,F,]2 B,,2 | [D,B,]2 [E,B,]4 | %16
 [C,A,]2 [D,B,]A, [E,G,]D, | [E,F,]C, [D,F,]2 E,D, | [C,B,]B,, [E,B,]2 [C,E]D | [F,C]2 [B,,B,]4- | %20
 [B,,B,]4 z2 |] %21
V:4
 x6 | x4 C,2 | x6 | x6 | x6 | x6 | x6 | x6 | x6 | x6 | x6 | x6 | x6 | x6 | x6 | x6 | x6 | x6 | x6 | %19
 x6 | x6 |] %21

